X:509
T:Polska # 509
T: efter fadern
Q: 120
M:3/4
L:1/16
K: D
A3G A3B c3d| e3f d8| d3e f3g a3f| f3e e8 :|
|: e3e c3c e3g| g3f d3d f3a| e2ee c3c e2d2| B2Bc A8:|

